svg/u1f63e.svg

<svg viewBox="0 0 128 128" xmlns="http://www.w3.org/2000/svg">
  <defs/>
  <path d="M114.11,70.76 C112.31,44.78 94.44,26.3 64,26.3 C33.56,26.3 15.69,44.78 13.89,70.76 C12.84,85.9 18.94,98.77 30.98,106.97 C30.98,106.97 43.19,116.85 64,117.11 C84.81,116.85 97.02,106.97 97.02,106.97 C109.05,98.77 115.16,85.9 114.11,70.76 Z" fill="#FFC022"/>
  <path d="M54.12,45.02 C55.25,45.98 57.54,45.84 58.87,44.3 C60.48,42.43 62.16,36.13 61.11,26.39 C56.44,26.56 52.02,27.23 47.9,28.36 C51.23,33.82 52.03,43.24 54.12,45.02 Z" fill="#FF7043" opacity="0.47"/>
  <path d="M73.88,45.02 C72.75,45.98 70.46,45.84 69.13,44.3 C67.52,42.43 65.84,36.13 66.89,26.39 C71.56,26.56 75.98,27.23 80.1,28.36 C76.77,33.82 75.97,43.24 73.88,45.02 Z" fill="#FF7043" opacity="0.47"/>
  <path d="M55.96,76.97 C55.91,74.11 60.02,72.73 63.91,72.67 C67.8,72.61 71.98,73.87 72.03,76.73 C72.08,79.59 67.17,83.37 64.08,83.37 C61,83.37 56.01,79.83 55.96,76.97 Z"/>
  <path d="M8.389,60.792 L23.829,72.162 Q24.433,72.607 24.513,73.131 Q24.593,73.656 24.148,74.259 Q23.258,75.467 22.051,74.578 L6.611,63.208 Q6.007,62.763 5.927,62.239 Q5.847,61.714 6.292,61.111 Q7.182,59.903 8.389,60.792 Z" fill="#9E9E9E"/>
  <path d="M4.363,73.484 L22.503,78.954 Q23.221,79.17 23.472,79.638 Q23.723,80.105 23.506,80.823 Q23.073,82.259 21.637,81.826 L3.497,76.356 Q2.779,76.14 2.528,75.672 Q2.277,75.205 2.494,74.487 Q2.927,73.051 4.363,73.484 Z" fill="#9E9E9E"/>
  <path d="M6.154,89.026 L22.794,85.916 Q24.269,85.64 24.544,87.114 Q24.682,87.852 24.383,88.289 Q24.083,88.727 23.346,88.864 L6.706,91.974 Q5.231,92.25 4.956,90.776 Q4.818,90.038 5.117,89.601 Q5.417,89.163 6.154,89.026 Z" fill="#9E9E9E"/>
  <path d="M122.416,63.339 L105.906,74.609 Q104.667,75.455 103.821,74.216 Q102.975,72.977 104.214,72.131 L120.724,60.861 Q121.963,60.015 122.809,61.254 Q123.232,61.874 123.133,62.395 Q123.035,62.916 122.416,63.339 Z" fill="#9E9E9E"/>
  <path d="M124.515,76.182 L106.375,81.822 Q104.943,82.268 104.498,80.835 Q104.052,79.403 105.485,78.958 L123.625,73.318 Q125.057,72.872 125.502,74.305 Q125.948,75.737 124.515,76.182 Z" fill="#9E9E9E"/>
  <path d="M122.345,90.355 L104.805,88.885 Q103.31,88.759 103.435,87.265 Q103.561,85.77 105.055,85.895 L122.595,87.365 Q124.09,87.491 123.965,88.985 Q123.839,90.48 122.345,90.355 Z" fill="#9E9E9E"/>
  <path d="M33.85,64.28 C33.85,61.47 34.8,57.29 36.27,56.87 C36.72,56.74 37.26,56.81 37.63,57.1 C42.79,61.05 46.42,62.95 46.84,63.25 C50.37,65.75 45.19,72.65 41.12,72.72 C37.19,72.79 33.85,69.01 33.85,64.28 Z"/>
  <path d="M94.14,64.28 C94.14,61.19 93.62,57.95 92.15,57.54 C91.7,57.41 91.16,57.48 90.79,57.77 C85.63,61.72 81.57,62.96 81.15,63.26 C77.62,65.76 82.8,72.66 86.87,72.73 C90.8,72.79 94.14,69.01 94.14,64.28 Z"/>
  <path d="M82.55,98.21 C81.28,97.37 75.85,94.51 71.51,92.38 C68.26,90.78 66.23,87.44 66.23,83.82 L66.23,81.67 C66.23,80.51 65.39,79.45 64.23,79.33 C62.9,79.2 61.78,80.24 61.78,81.54 L61.78,83.82 C61.78,87.44 59.75,90.79 56.5,92.38 C52.16,94.51 46.73,97.37 45.46,98.21 C44.43,98.89 44.15,100.27 44.83,101.29 C45.26,101.94 45.97,102.29 46.69,102.29 C47.11,102.29 47.54,102.17 47.91,101.92 C52.68,98.78 57.26,95.4 64.01,95.4 C70.76,95.4 75.24,98.72 80.02,101.86 C80.99,102.5 82.32,102.38 83.06,101.48 C83.89,100.44 83.64,98.93 82.55,98.21 Z"/>
  <path d="M17.39,55.6 C10.41,32.87 15.06,16.09 19.75,9.58 C21.13,7.66 23.38,7.01 25.57,7.7 C31.37,9.52 31.63,23.4 48.21,28.24" fill="#FFC022"/>
  <path d="M21.6,16.09 C20.16,18.34 19.49,21.01 19.19,23.66 C18.24,32.08 19.62,40.59 22.38,45.01 C23.9,47.44 24.74,44.03 27.66,41.73 L29.11,40.12 C21.48,28.14 21.6,16.09 21.6,16.09 Z" fill="#FF7043" opacity="0.47"/>
  <path d="M25.27,39.61 C21.8,30.69 20.32,22.98 21.36,16.86 C21.99,13.14 23.08,10.66 23.9,9.21 C24.09,8.87 24.61,9.08 24.52,9.45 C23.91,12.13 23.17,17.56 25.35,26.39 C25.99,28.98 29.5,37.71 30.5,38.84 C31.75,40.25 32.35,42.3 29.51,44.51 C26.18,47.1 22.45,51.01 20.49,53.14 C20.18,53.47 19.64,53.13 19.81,52.71 C20.54,50.86 21.9,47.91 24.12,44.85 C25.54,42.89 26.02,41.53 25.27,39.61 Z" fill="#EF6C00"/>
  <path d="M110.61,55.6 C117.59,32.87 112.94,16.09 108.25,9.58 C106.87,7.66 104.62,7.01 102.43,7.7 C96.63,9.52 96.37,23.4 79.79,28.24" fill="#FFC022"/>
  <path d="M106.4,16.09 C107.84,18.34 108.51,21.01 108.81,23.66 C109.76,32.08 108.38,40.59 105.62,45.01 C104.1,47.44 103.26,44.03 100.34,41.73 L98.89,40.12 C106.52,28.14 106.4,16.09 106.4,16.09 Z" fill="#FF7043" opacity="0.47"/>
  <path d="M102.73,39.61 C106.2,30.69 107.68,22.98 106.64,16.86 C106.01,13.14 104.92,10.66 104.1,9.21 C103.91,8.87 103.39,9.08 103.48,9.45 C104.09,12.13 104.83,17.56 102.65,26.39 C102.01,28.98 98.5,37.71 97.5,38.84 C96.25,40.25 95.65,42.3 98.49,44.51 C101.82,47.1 105.55,51.01 107.51,53.14 C107.82,53.47 108.36,53.13 108.19,52.71 C107.46,50.86 106.1,47.91 103.88,44.85 C102.46,42.89 101.98,41.53 102.73,39.61 Z" fill="#EF6C00"/>
</svg>

<svg viewBox="0 0 128 128" xmlns="http://www.w3.org/2000/svg">
  <g>
    <path d="M114.11,70.76C112.31,44.78,94.44,26.3,64,26.3S15.69,44.78,13.89,70.76 c-1.05,15.14,5.05,28.01,17.09,36.21c0,0,12.21,9.88,33.02,10.14c20.81-0.26,33.02-10.14,33.02-10.14 C109.05,98.77,115.16,85.9,114.11,70.76z" fill="#FFC022"/>
    <path d="M54.12,45.02c1.13,0.96,3.42,0.82,4.75-0.72c1.61-1.87,3.29-8.17,2.24-17.91 c-4.67,0.17-9.09,0.84-13.21,1.97C51.23,33.82,52.03,43.24,54.12,45.02z" fill="#FF7043" opacity="0.47"/>
    <path d="M73.88,45.02c-1.13,0.96-3.42,0.82-4.75-0.72c-1.61-1.87-3.29-8.17-2.24-17.91 c4.67,0.17,9.09,0.84,13.21,1.97C76.77,33.82,75.97,43.24,73.88,45.02z" fill="#FF7043" opacity="0.47"/>
    <path d="M55.96,76.97c-0.05-2.86,4.06-4.24,7.95-4.3s8.07,1.2,8.12,4.06c0.05,2.86-4.86,6.64-7.95,6.64 C61,83.37,56.01,79.83,55.96,76.97z"/>
    <g>
      <g>
        <line fill="none" stroke="#9E9E9E" stroke-linecap="round" stroke-miterlimit="10" stroke-width="3" x1="7.5" x2="22.94" y1="62" y2="73.37"/>
        <line fill="none" stroke="#9E9E9E" stroke-linecap="round" stroke-miterlimit="10" stroke-width="3" x1="3.93" x2="22.07" y1="74.92" y2="80.39"/>
        <line fill="none" stroke="#9E9E9E" stroke-linecap="round" stroke-miterlimit="10" stroke-width="3" x1="6.43" x2="23.07" y1="90.5" y2="87.39"/>
      </g>
      <g>
        <line fill="none" stroke="#9E9E9E" stroke-linecap="round" stroke-miterlimit="10" stroke-width="3" x1="121.57" x2="105.06" y1="62.1" y2="73.37"/>
        <line fill="none" stroke="#9E9E9E" stroke-linecap="round" stroke-miterlimit="10" stroke-width="3" x1="124.07" x2="105.93" y1="74.75" y2="80.39"/>
        <line fill="none" stroke="#9E9E9E" stroke-linecap="round" stroke-miterlimit="10" stroke-width="3" x1="122.47" x2="104.93" y1="88.86" y2="87.39"/>
      </g>
    </g>
    <g>
      <path d="M33.85,64.28c0-2.81,0.95-6.99,2.42-7.41c0.45-0.13,0.99-0.06,1.36,0.23c5.16,3.95,8.79,5.85,9.21,6.15 c3.53,2.5-1.65,9.4-5.72,9.47C37.19,72.79,33.85,69.01,33.85,64.28z"/>
      <path d="M94.14,64.28c0-3.09-0.52-6.33-1.99-6.74c-0.45-0.13-0.99-0.06-1.36,0.23c-5.16,3.95-9.22,5.19-9.64,5.49 c-3.53,2.5,1.65,9.4,5.72,9.47C90.8,72.79,94.14,69.01,94.14,64.28z"/>
    </g>
    <path d="M82.55,98.21c-1.27-0.84-6.7-3.7-11.04-5.83c-3.25-1.6-5.28-4.94-5.28-8.56v-2.15c0-1.16-0.84-2.22-2-2.34 c-1.33-0.13-2.45,0.91-2.45,2.21v2.28c0,3.62-2.03,6.97-5.28,8.56c-4.34,2.13-9.77,4.99-11.04,5.83c-1.03,0.68-1.31,2.06-0.63,3.08 c0.43,0.65,1.14,1,1.86,1c0.42,0,0.85-0.12,1.22-0.37c4.77-3.14,9.35-6.52,16.1-6.52s11.23,3.32,16.01,6.46 c0.97,0.64,2.3,0.52,3.04-0.38C83.89,100.44,83.64,98.93,82.55,98.21z"/>
    <g>
      <g>
        <path d="M17.39,55.6c-6.98-22.73-2.33-39.51,2.36-46.02c1.38-1.92,3.63-2.57,5.82-1.88 c5.8,1.82,6.06,15.7,22.64,20.54" fill="#FFC022"/>
        <path d="M21.6,16.09c-1.44,2.25-2.11,4.92-2.41,7.57c-0.95,8.42,0.43,16.93,3.19,21.35 c1.52,2.43,2.36-0.98,5.28-3.28l1.45-1.61C21.48,28.14,21.6,16.09,21.6,16.09z" fill="#FF7043" opacity="0.47"/>
        <path d="M25.27,39.61c-3.47-8.92-4.95-16.63-3.91-22.75c0.63-3.72,1.72-6.2,2.54-7.65 c0.19-0.34,0.71-0.13,0.62,0.24c-0.61,2.68-1.35,8.11,0.83,16.94c0.64,2.59,4.15,11.32,5.15,12.45 c1.25,1.41,1.85,3.46-0.99,5.67c-3.33,2.59-7.06,6.5-9.02,8.63c-0.31,0.33-0.85-0.01-0.68-0.43c0.73-1.85,2.09-4.8,4.31-7.86 C25.54,42.89,26.02,41.53,25.27,39.61z" fill="#EF6C00"/>
      </g>
      <g>
        <path d="M110.61,55.6c6.98-22.73,2.33-39.51-2.36-46.02c-1.38-1.92-3.63-2.57-5.82-1.88 c-5.8,1.82-6.06,15.7-22.64,20.54" fill="#FFC022"/>
        <path d="M106.4,16.09c1.44,2.25,2.11,4.92,2.41,7.57c0.95,8.42-0.43,16.93-3.19,21.35 c-1.52,2.43-2.36-0.98-5.28-3.28l-1.45-1.61C106.52,28.14,106.4,16.09,106.4,16.09z" fill="#FF7043" opacity="0.47"/>
        <path d="M102.73,39.61c3.47-8.92,4.95-16.63,3.91-22.75c-0.63-3.72-1.72-6.2-2.54-7.65 c-0.19-0.34-0.71-0.13-0.62,0.24c0.61,2.68,1.35,8.11-0.83,16.94c-0.64,2.59-4.15,11.32-5.15,12.45 c-1.25,1.41-1.85,3.46,0.99,5.67c3.33,2.59,7.06,6.5,9.02,8.63c0.31,0.33,0.85-0.01,0.68-0.43c-0.73-1.85-2.09-4.8-4.31-7.86 C102.46,42.89,101.98,41.53,102.73,39.61z" fill="#EF6C00"/>
      </g>
    </g>
  </g>
</svg>
